src/22/actions/object-flip-horizontal.svg

<svg xmlns="http://www.w3.org/2000/svg" viewBox="0 0 22 22"><path d="M6 3v1h1V3H6zm9 0v1h1V3h-1zM6 5v1H3v10h3v1h1v-1h3v-3h2v3h3v1h1v-1h3V6h-3V5h-1v1h-3v3h-2V6H7V5H6zM4 7h5v8H4V7zm9 0h5v8h-5V7zm1 1v6h3V8h-3zm-4 2h2v2h-2v-2zm-4 8v1h1v-1H6zm9 0v1h1v-1h-1z" fill="currentColor" color="#5d656b"/></svg>

<svg xmlns="http://www.w3.org/2000/svg" viewBox="0 0 22 22">
  <defs id="defs3051">
    <style type="text/css" id="current-color-scheme">
      .ColorScheme-Text {
        color:#5d656b;
      }
      </style>
  </defs>
 <path 
     style="fill:currentColor;fill-opacity:1;stroke:none" 
     d="M 6 3 L 6 4 L 7 4 L 7 3 L 6 3 z M 15 3 L 15 4 L 16 4 L 16 3 L 15 3 z M 6 5 L 6 6 L 3 6 L 3 16 L 6 16 L 6 17 L 7 17 L 7 16 L 10 16 L 10 13 L 12 13 L 12 16 L 15 16 L 15 17 L 16 17 L 16 16 L 19 16 L 19 6 L 16 6 L 16 5 L 15 5 L 15 6 L 12 6 L 12 9 L 10 9 L 10 6 L 7 6 L 7 5 L 6 5 z M 4 7 L 9 7 L 9 15 L 4 15 L 4 7 z M 13 7 L 18 7 L 18 15 L 13 15 L 13 7 z M 14 8 L 14 14 L 17 14 L 17 8 L 14 8 z M 10 10 L 12 10 L 12 12 L 10 12 L 10 10 z M 6 18 L 6 19 L 7 19 L 7 18 L 6 18 z M 15 18 L 15 19 L 16 19 L 16 18 L 15 18 z "
	 class="ColorScheme-Text"
     />
</svg>
